X: 131008
Q: "Scotch Jig."
M: 6/8
L: 1/8
K: A
vc2vE EFE | vF2vA uA2uf | ve2vc cBA | c2B BAB |\
c2E EFE | F2A A2f | e2c BAB | A2A A :|
|: cd |\
ve2ve ece | vf2va ua2uf | ve2vc cBA | c2B Bcd |\
e2e efg | a2a agf | e2c BAB | A2A A :|


